X:1
T:Mille regretz
T:Mille regretz
T:Josquin des Prez
C:Josquin des Prez
%%score [ 1 2 3 4 ]
L:1/8
Q:1/4=100
M:2/2
K:C
V:1 treble nm="Soprano"
V:2 treble nm="Alto"
V:3 treble-8 nm="Tenor"
V:4 bass nm="Bass"
V:1
 E8 | A4 A4 | G6 FE | D3 C D4 | C2 c2 c2 c2 | B2 B2 A4 | z4 c4 | B4 A4- | A2 G^F G4 | z4 c4 | %10
w: Mil-|le re-|gretz _ _|_ _ _|* de vous ha-|ban- don- ner,|et|des- lon-|* * * ger,|et|
 B4 A4- | A2 G^F G4 | A2 A2 A2 A2 | G2 G2 F4 | E8 | z8 | B8 | c4 A4 | B4 e4 | d6 c2 | B2 A2 G4 | %21
w: des- lon-|* * * lon-|ger vos- tre fa-|che'a- mou- reu-|se,||jay|si grand|dueil et|pai- ne|dou- lou- reu-|
 A8 | z8 | z4 E4 | G4 G4 | D8 | z2 d2 d2 d2 | c8 | B4 A4 | z8 | z4 d4 | c8 | B4 A4 | z2 A2 A2 A2 | %34
w: se,||qu'on|me ver-|ra|brief mes jours|des-|fi- ner,||qu'on|me|ver- ra|brief mes jours|
 G4 F4 | E2 A2 A2 A2 | G4 F4 | E2 E2 G2 E2 | G4 E3 F | G8 |] %40
w: des- fi-|ner, brief mes jours|des- fi-|ner, brief mes jours|des- fi- *|ner.|
V:2
 E8 | C4 F4 | E8 | z8 | z2 E2 E2 E2 | G4 F4 | E4 E4 | D4 C4 | B,8 | E8 | D4 C4 | B,4 E4 | F6 F2 | %13
w: Mil-|le re-|gretz||de vous ha-|ban- don-|ner et|des- lon-|ger,|et|des- lon-|ger vos-|tre fa-|
 E2 E2 D4 | C2 C2 C2 C2 | B,2 B,2 A,4 | B,4 G4 | E4 E4 | E4 z2 E2 | F6 E2 | D2 C2 B,4 | A,8 | z8 | %23
w: che'a- mou- reu-|se, vos- tre fa-|che'a- mou- reu-|se, jay|si grand|dueil et|pai- ne|dou- lou- reu-|se,||
 z8 | E4 G4- | G4 G4 | F8 | z2 A2 A2 A2 | G4 F4 | E8 | z8 | C8 | G4 F4 | E2 F2 F2 F2 | E4 D4 | %35
w: |qu'on me|_ ver-|ra|brief mes jours|des- fi-|ner,||qu'on|me ver-|ra brief mes jours|des- fi-|
 C2 F2 F2 F2 | E4 D4 | C2 C2 B,2 C2 | B,4 C4 | B,8 |] %40
w: ner, brief mes jours|des- fi-|ner, brief me jours|des- fi-|ner.|
V:3
 z8 | z8 | E6 F2 | G4 G4 | A4 z2 A2 | G2 E2 F2 D2 | A8 | z8 | z8 | c8 | G4 A4 | E8 | z8 | z8 | %14
w: ||Mil- *|le re-|gretz de|vous ha- ban- don-|ner|||et|des- lon-|ger|||
 z2 e2 e2 e2 | e2 e2 d4 | e4 e4 | c4 c4 | B8 | z8 | z4 e4 | d6 c2 | B2 A2 G4 | A8 | G8 | z4 B4 | %26
w: vos- tre fa-|che'a- mou- reu-|se, jay|si grand|dueil||et|pai- ne|dou- lou- reu-|se,|_|qu'on|
 d4 d4 | A8 | z4 d4 | B2 c2 B2 c2- | cB A4 G2 | A4 z2 A2 | G2 E2 F2 D2 | A2 A2 c2 c2 | c4 A3 B | %35
w: me ver-|ra|brief|mes jours des- fi-||ner, brief|mes jours de- fi-|ner, brief mes jours|de- fi- *|
 c2 A2 c2 c2 | c4 A3 B | c2 A2 G2 A2 | G4 A4 | G8 |] %40
w: ner, brief mes jours|de- fi- *|ner, brief mes jours|des- fi-|ner.|
V:4
 E,8 | F,4 D,4 | E,6 D,C, | B,,3 A,, B,,4 | A,,8 | z8 | C8 | G,4 A,4 | E,8 | z8 | z8 | z4 C,4 | %12
w: Mil-|le- re-|||gretz||et|des- lon-|ger|||vos-|
 F,6 F,2 | C,2 C,2 D,4 | A,,2 A,2 A,2 A,2 | G,2 G,2 F,4 | E,4 E,4 | A,4 A,4 | E,8 | z8 | z4 E,4 | %21
w: tre fa-|ch'a- mou- reu-|se, vos- tre fa-|che'a- mou- reu-|se, jay|si grand|dueil||et|
 F,6 E,2 | D,2 C,2 B,,4 | A,,8 | z4 E,4 | G,4 G,4 | D,8 | z8 | z4 D,4 | E,2 A,,2 E,2 C,2- | %30
w: pai- ne|dou- lou- reu-|se,|qu'on|me ver-|ra||brief|mes jours de- fi-|
 C,2 D,2 B,,4 | A,,8 | z8 | z2 F,2 F,2 F,2 | C,4 D,4 | A,,2 F,2 F,2 F,2 | C,4 D,4 | %37
w: |ner,||brief mes jours|de- fi-|ner, brief mes jours|de- fi-|
 A,,2 A,,2 E,2 A,,2 | E,4 A,,4 | E,8 |] %40
w: ner, brief mes jours|de- fi-|ner.|

